X: 37841
T: Sophie's
R: jig
M: 6/8
K: Bminor
|:A,|B,DF BFB|AGF DEF|GBd c2 B|BAG EFD|
B,DF BFB|AGF DEF|GBd FBd|EFD B,2:|
|:c|dfe dBA|BGB AFD|EFG Adc|BGB AFD|
dfe dBA|BGB AFD|EFG FED|B,DA, B,2:|


